build/Karasa-Jaga/scalable/status/mail-read-symbolic.svg

<svg height="16" width="16" xmlns="http://www.w3.org/2000/svg"><g fill="#bebebe"><path d="m15.09375 6.4375-5.15625 3.46875 1.40625 1 3.75 2.71875v-6.0625zm-.486328.9140625v.2109375 5.109375l-2.978516-2.160156a.48618451.48618451 0 0 0 -.0039-.002l-.832037-.5917502z"/><path d="m6.65625 10.3125-.15625.09375-.125.09375-1.46875.96875-4 2.6875v.34375h14.1875v-.34375l-4-2.6875-1.46875-.96875-.125-.09375-.15625-.09375-1.1875.75-.125.09375h-.0625l-.125-.09375zm.00586.564453.9121094.576172.1113281.08203a.47347348.47347348 0 0 0 .2832031.09375h.0625a.47347348.47347348 0 0 0 .2832031-.09375l.1113281-.08203.9121094-.576172.00391.0019a.47347348.47347348 0 0 0 .023437.01563l1.4667968.96875 3.222657 2.164063h-12.1093795l3.2226563-2.164063 1.4667968-.96875a.47347348.47347348 0 0 0 .023437-.01563z"/><path d="m.90625 6.4375v1.125 6.0625l3.75-2.71875 1.40625-1zm.4414062.8300781 3.9394532 2.6484375-.8867188.6308594a.44198593.44198593 0 0 0 -.00391.002l-3.0488244 2.210891v-5.197266z"/><path d="m.90625 6.53125v-.40625-.0625l6.4375-4.15625.3125-.1875.34375-.21875.34375.21875.3125.1875 6.4375 4.15625v.0625.40625h-.46875-3.5-1.9375-2.375-2.15625-3.28125zm.9257812-.486328h2.8242188 2.15625 2.375 1.9375 3.042969l-5.7695315-3.7265626-.3046875-.1835938a.48618451.48618451 0 0 1 -.011719-.00586l-.082031-.0527337-.0820312.0527343a.48618451.48618451 0 0 1 -.0117188.0058594l-.3046875.1835938z"/></g></svg>

<?xml version="1.0" encoding="UTF-8" standalone="no"?>
<!-- Created with Inkscape (http://www.inkscape.org/) -->

<svg
   xmlns:dc="http://purl.org/dc/elements/1.1/"
   xmlns:cc="http://creativecommons.org/ns#"
   xmlns:rdf="http://www.w3.org/1999/02/22-rdf-syntax-ns#"
   xmlns:svg="http://www.w3.org/2000/svg"
   xmlns="http://www.w3.org/2000/svg"
   xmlns:sodipodi="http://sodipodi.sourceforge.net/DTD/sodipodi-0.dtd"
   xmlns:inkscape="http://www.inkscape.org/namespaces/inkscape"
   width="16px"
   height="16px"
   id="svg3112"
   version="1.1"
   inkscape:version="0.92.2 (unknown)"
   sodipodi:docname="mail-read-symbolic.svg">
  <defs
     id="defs3114" />
  <sodipodi:namedview
     id="base"
     pagecolor="#ffffff"
     bordercolor="#666666"
     borderopacity="1.0"
     inkscape:pageopacity="0.0"
     inkscape:pageshadow="2"
     inkscape:zoom="16"
     inkscape:cx="20.325263"
     inkscape:cy="2.6474475"
     inkscape:current-layer="layer1"
     showgrid="false"
     inkscape:grid-bbox="true"
     inkscape:document-units="px"
     inkscape:window-width="1366"
     inkscape:window-height="706"
     inkscape:window-x="0"
     inkscape:window-y="0"
     inkscape:window-maximized="1"
     inkscape:snap-global="false">
    <inkscape:grid
       type="xygrid"
       id="grid3145" />
  </sodipodi:namedview>
  <metadata
     id="metadata3117">
    <rdf:RDF>
      <cc:Work
         rdf:about="">
        <dc:format>image/svg+xml</dc:format>
        <dc:type
           rdf:resource="http://purl.org/dc/dcmitype/StillImage" />
        <dc:title></dc:title>
      </cc:Work>
    </rdf:RDF>
  </metadata>
  <g
     id="layer1"
     inkscape:label="Layer 1"
     inkscape:groupmode="layer">
    <g
       id="g868">
      <path
         id="rect2987"
         d="m 15.09375,6.4375 -5.15625,3.46875 1.40625,1 3.75,2.71875 V 7.5625 Z M 14.607422,7.3515625 V 7.5625 12.671875 l -2.978516,-2.160156 a 0.48618451,0.48618451 0 0 0 -0.0039,-0.002 L 10.792969,9.9179688 Z"
         style="fill:#bebebe;fill-opacity:1;stroke:none"
         inkscape:connector-curvature="0" />
      <path
         id="path814"
         d="M 6.65625,10.3125 6.5,10.40625 6.375,10.5 l -1.46875,0.96875 -4,2.6875 V 14.5 h 14.1875 v -0.34375 l -4,-2.6875 L 9.625,10.5 9.5,10.40625 9.34375,10.3125 l -1.1875,0.75 -0.125,0.09375 h -0.0625 l -0.125,-0.09375 z m 0.00586,0.564453 0.9121094,0.576172 0.1113281,0.08203 a 0.47347348,0.47347348 0 0 0 0.2832031,0.09375 h 0.0625 a 0.47347348,0.47347348 0 0 0 0.2832031,-0.09375 l 0.1113281,-0.08203 0.9121094,-0.576172 0.00391,0.0019 a 0.47347348,0.47347348 0 0 0 0.023437,0.01563 l 1.4667968,0.96875 3.222657,2.164063 H 1.9453125 l 3.2226563,-2.164063 1.4667968,-0.96875 a 0.47347348,0.47347348 0 0 0 0.023437,-0.01563 z"
         style="fill:#bebebe;fill-opacity:1;stroke:none"
         inkscape:connector-curvature="0" />
      <path
         id="path816"
         d="m 0.90625,6.4375 v 1.125 6.0625 l 3.75,-2.71875 1.40625,-1 z M 1.3476562,7.2675781 5.2871094,9.9160156 4.4003906,10.546875 a 0.44198593,0.44198593 0 0 0 -0.00391,0.002 L 1.3476562,12.759766 V 7.5625 Z"
         style="fill:#bebebe;fill-opacity:1;stroke:none"
         inkscape:connector-curvature="0" />
      <path
         id="path818"
         d="M 0.90625,6.53125 V 6.125 6.0625 L 7.34375,1.90625 7.65625,1.71875 8,1.5 l 0.34375,0.21875 0.3125,0.1875 6.4375,4.15625 V 6.125 6.53125 H 14.625 11.125 9.1875 6.8125 4.65625 1.375 Z M 1.8320312,6.044922 H 4.65625 6.8125 9.1875 11.125 14.167969 L 8.3984375,2.3183594 8.09375,2.1347656 A 0.48618451,0.48618451 0 0 1 8.082031,2.1289056 L 8,2.0761719 7.9179688,2.1289062 A 0.48618451,0.48618451 0 0 1 7.90625,2.1347656 L 7.6015625,2.3183594 Z"
         style="fill:#bebebe;fill-opacity:1;stroke:none"
         inkscape:connector-curvature="0" />
    </g>
  </g>
</svg>
